X: 132016
T: The CAMPBELLS ARE COMING
Q: "Scotch Jig."
R: Jig.
%R: jig
B: James Kerr "Merry Melodies" v.1 p.32 s.0 #16
Z: 2016 John Chambers <jc:trillian.mit.edu>
M: 6/8
L: 1/8
K: G
B/A/ |\
vG2ve dBG | BcB uB2uA | G2e dBG | ABA A2G |\
Bde dBG | dBd gab | geg dBG | BcB B2 :|
|: ud |\
g3 gab | ded dBd | vg2vg gab | ve2ve ue2ud |\
def gfe | def gab | geg dBG | B2B B2 :|

%%sep 1 1 500
%%sep 1 1 500

